-----BEGIN PGP PUBLIC KEY BLOCK-----

mQGNBFzAdycBDAD6HTkashC6FI6PFm5FzgfoCQNazWWo2bs5/rXBTMSO4HLpi+Pz
nIzGENm17IPXa5puhUCKXF4q9osd/qgzCn2anUix1rdeKumQhxAXyBWuv3mFNf8r
lndvvgO6VKhmc5d5l4FstgpYf0P0qSlIzp8LRrEkdhj3BSY31V2XuThaH1Qj928U
1ncxcpomzZd7LeY34v5eqS9OhihewbUZ5kPJk0WniX6FwNAt8PekFTjvI0RiaE0z
jZtUxQFy2CqSJlVhA9hpaoaSJc5We812vDydKotlXPv1vZ4kaxfjeui/rPs3Uh0q
1D0ILwS0w33O98RQBrr0jIrkVGazwm2GwW/Q9e9wRyXRxY5h/R+gUFw/wgNqyh8q
iTxSeMrL0Xu67jv1GJ89/WDHtpriQzWEkcsCQbtgR2vN9CygYFcgoxGGaJaNrcrh
D2DzV41xfJJVNyCSdhhvaGilOgDCYzAK0RJl8JziJuWwWdb0ngia84qodwR5lCTZ
fPxRkfroELILJjEAEQEAAbQwUGV0ZXIgU2NodWx0eiA8c2NodWx0ei5wZXRlcjg3
MTlAZ29vZ2xlbWFpbC5jb20+iQIBBBMBCgBrAhsBBQsJCAcDBRUKCQgLBRYCAwEA
Ah4BAheALBhodHRwczovL3BzY2h1bHR6LmdpdGh1Yi5pby9wZ3AvQjIwNTcyMEQu
YXNjFiEEsgVyDR/MzICTjUDmDIAaemAs/tIFAmjH2GoFCQ3olMMACgkQDIAaemAs
/tJsXAv8C/lbhxRPhidMrrm0lNiT4SRUgbyseavgabTXuxv8zCZ6tC/ukpSj/DVj
Hzt8JmeiWlVv3ikK56LIE5QDGqDK+sSyviSeuQTXptWOgiDGLhGprlTJTHuQw3ib
MEGd5b2dkw3+mKWZyQW9SdMlIaqeHAuCYNYMBYEkge1K7obXgh4p94ymULNi7O20
JMqS5FtfzEEb2j2c7prpPbhI1xfrVocSPrIO0zJezfe8W3kbr0jLYlOvD/6wKzpS
VBnUctVVrakw15lBV3kCDY6kPzvpHFB5rDx5f/vNFkiDKAZI5QorYU92b5NUQWtR
djvcJlnrX7Hxol1S1EUS67fCRn3dbl+yBQH5exNFqv2AMnLKWCQcAjvGFTtGF5MU
HPJ4yrYu0y5m0qSq5Cs6AqwKqk2WLip+S4NsZOuS6pVmF7ezy095b2INskmYOYjA
MTr3G7OfzpddUx1afh4RTuVR7CeDwuVhYIi1PMYt/wxhD1xFxUfquQ8h6YQ+t7hb
uQ7w9c5diQIBBBMBCgBrAhsBBQkCANeABQsJCAcDBRUKCQgLBRYCAwEAAh4BAheA
FiEEsgVyDR/MzICTjUDmDIAaemAs/tIFAlzAj4gsGGh0dHBzOi8vcHNjaHVsdHou
Z2l0aHViLmlvL3BncC9CMjA1NzIwRC5hc2MACgkQDIAaemAs/tItwwwA601xZBCF
E9eh6+ssS81tas/PANVTiNq2No+SrkfuNw37dgzptZCGrkDylwflMLQykl5pUaNe
7rLXzOh0dVonPNk3m39TGo82BgmoaATsA/UJZxWZkEn9KFE0Eb+Yj8iLhXgOphsM
q6t/9orZL7+MqXICUbjVtPdnJ5EF2HaOqb2Wj8pnqM1+gdvaxpD185Fs6piZfk+6
w8P9DsOnS1oAvOYHVrH+HUt9eUkj30/Ukqe9//ItlY9pHser4ZsHH8JMK/rpvDdn
Yodfra4Txmvgiao78i66ELofsKNwm2yX/sKN250ElYe+gaFNxeu7Zhnacy82qApA
A1Af5inDeu0nxCBIjm7U3fcpdhjUVccHtsOXBp8okJchegXulFR/mTxJj8Jcta43
TYpfhpf19M3niw3IGGfRsv31NCx/a4QYtSq1FsyHa47p33LQ7N7+LXf9Zc92RcaI
RY1sRJDO5/yGHa0nSMd/92cwxiam5stL9J5xLAPa+Iw0PqVFdxQCAiPtuQENBF3E
XtgBCAD46SQX3G0V68Rzny/MEtyKHKD6mxnDho0nJbHPEczn46RAjL28BcQlB3AH
VLq6S8FaJGpgqn8E8bzcN8viET/n76B6yxzx5lvHfgkWL+aQa9DRkTyYPffWxNKi
OUxQtt4OuZ5M6JfvxW/wFWqfDlI4HyyCV3F8U0UgQDYU3AZHfIlQB498kWaow9R1
aeHzuXBGpZ52un9rb1BF7kMRIyugBN8/vjNzUo0oteoS7M8nON0r73ulhMeXYi83
UbhXKhnRfefRQcnl6lVCb2gUgyvxiRlDQiwkFjZaef2HogZbP88Fc0bU7W0mqJQ6
ub4Sjzq2WSbWfqM9DrMgT1RGSgQhABEBAAGJAbYEGAEIACACGwwWIQSyBXINH8zM
gJONQOYMgBp6YCz+0gUCXcSFqAAKCRAMgBp6YCz+0l5CC/9ysuiAYvcyctG+3+uY
rUUtoW25jAsjXWs5X54jpWhjqXBjeGA77EceiNmPHUEAtSO1IXFUjDap6PbAY02r
AQDnUlxm+zSzUeAWIXo9r9gdo64nN9mY56+ADACRhEY7wYTsqhYs9bOKwfvi9DmO
70Axdw7ye82MMxQs9UgmFdhAXCnX//WQqz4NfFgOV7c/G3qgH+455WYG72MyZc6z
G/I7VDx0LflsAgPmfhnu043X+xz190QwKA044b06RiwLHpdZUk7ZsKF86sFZcDdB
LqrWbhtEHQ5qKTMl8tMpmrwlVhG+n2SBz60OhQeU7bQ7Jj717ogxfCmZjwXLE/Yv
8/V0Li/3kR48eB2fOG+JIFh/GngvMWaGyPHflALRUIFkjOU7rWWqSvYsIy63+WJh
jaBa30/6HLL2PQo3IQBMD98G/PMBhyfpJUCj8Yw9QB9ptwK/yh8tNCBEl1ZNXBZo
1Ev2miXy01DiociC1EbrlLs78zkQpFD4LmBIatnLnBr3q8K5AQ0EYyM/uwEIAMlk
NtbN7inYL+BoP2Xf/FYrDfUCGN+i4fLefFoEmrhjhQchTy7yEFSfK+yDxsuFQNXy
7J4TisubJxnXMbWJ0w4LsCTnzsgkAXBRJobgyt1FC15J8Afrh5NPpZ9gqMo0la0l
ORuKcfsblfvtHbTgxS19hMqdmvVVHb/iIF8hHQAiy/FY1xWjuAcpCl/SDgk8PBez
saOPyDD1911hVTtwhivrb6FMOiUL++3c5mvRKVqQzxVUhV2HUHQDvuACHId1Odfp
3bz06JShVpKW5XEZS3IEzk+Va5AIsj7onEGnSzmyhgPLsIXatB/Rr0/sRgG9PtDV
HB+DNUi4XxyEAFp8drkAEQEAAYkC8gQYAQgAJgIbAhYhBLIFcg0fzMyAk41A5gyA
GnpgLP7SBQJox9h3BQkHhcw8AUDAdCAEGQEIAB0WIQShLeW7O5Lqw/9EfihTLISv
v2bNFAUCYyM/uwAKCRBTLISvv2bNFNg0B/9rVwzUeuIMxlP2zW74zzGwQlz9PQsd
dXo2r7bSpxqAJVLH/6+tGnvCkSj58sa3bqLDpPFyov5ntlMCNHlANJjREkp0uS1c
Zd5a/7DnQxXwKSGqr6EeDIW2/mizsItuRyTymMDYfGPBv2t7cOYWnePoqOs2ufWC
9KYWkuNPPcXvBSSnvHIuJYX+Wf1laBd7HNQEUsbLF7wOIROdwrkYhek4SAz354xk
XTzYaOBZY/8+kRZbGvpXFmR9l8S9qCNkz0emrFnhZ6BHt8gw/ShRWAgNjK5+0I8G
mMuHZPyzYAtBzP/5iocrWC1Or5l1YwurOFw/1ZfAaUvEjDvSOU7iYg3gCRAMgBp6
YCz+0l8aDADZFhi+S0vRL48N/jBs/wc1El+D2Sd8gYPb9gGaSTcvB14ITtpe8XC/
Bh6ERdzD2AfEK1bPUmnmE6EE+bi/5kpyhJKvHjrpX/o2sExae3UWA/+o5PpfwORH
UK517rD3TIjSdN7tTC/Ggm2aXJrCasS3730dLFSPjmjLkMgx1ljSpR+3TpQZTZ5x
f5OQr3QTiicmjjY2jCiCHKmN5OZlrmkVJxKuJfEuAKBa/j9OASdQdFzsdCpkDFmj
V+VEEnSpL/+tBI6Gau5POjx7JK7RpY71qqwuUeU13kXp+ObEaEO0ktAy4tfN4Syk
tHe63zsVOwskG6Fgt5AKC/6AQNYO5qGvxd9oDcTXj/Hexv9cnGbPKtOdo3al9177
RWToUsdUezgVyzBpUcWu0VkgrPe5g0erAeqUp4HIrEryGaZpXH3h3gpZZKCLzIjA
lPhzm+GN+hMercrqF22GNhuKZiAjik7bILLkFirHts4mc0Oirevy6AI1cR3zBRvF
izaAYatL3565AQ0EYyM/2wEIALcjWMjNbwunMrt9Xj3lJEkq71DQtmIxDLbt7DE1
y2WRXUizO+nhILFdGIfyL7QezaM7KvAgcRtrU5ocJZ1kLxpM4cHgPgrjUss3k+3E
/8yIwilkOuElNizrCwprww+x1BU7bns35Q5IYLSEe2coX2UgdQfY3iNCCduTd73D
rERH1lUBQyt8qE91S0oQfqqs275oJOy8ilhiKs0ROcicsifvwV89XJC+4tTViaaX
BIbxWdYY6aq2G3y2eucXh5k1Y8zHl2sH21k4qWGw9MSwqKbuQfCHDweRvYWBmuAB
bzVA+2AJAm0Brb7QXochcgQ9vOpksGrVQ03dj7fDwK0Tm6MAEQEAAYkBvAQYAQgA
JgIbIBYhBLIFcg0fzMyAk41A5gyAGnpgLP7SBQJox9h3BQkHhcwcAAoJEAyAGnpg
LP7Sh14L/0WwmMTlsV+Wrs4O3NAvIVupX0DUDqPLvEeHuiZj9EZ+OMenfvMjAtqX
7TZ9eF1IllvIW3g6S2s8sMb12e33Tx+BSCqCRMfRLwstS7RB78QdX2JFQ3Jri0WN
4Dmg+9jAdpMpDZlSerwxDLmavWdpcAibBX3psJe9oPa0DFKvr6om2e679t1PhQpn
HOcCsP/yEHleuxPRTEfRrpduj78TouqS51iwKSn9/FlN+/dqPhreY8Hb2IG2FSfy
QXTsXM8qGG1jntA5ZP2sOGVHpEEWDFk0gMHQOvRoL/9jFEmSk7yHYSBRRfCcYwWl
61TdR5N5ht4lgV8LZhpIJCM870dW2b4jbt1whG+SU8bn5/c0iv3aY4qysmx9Ysm9
I5W+ccw95IsC//o+JknpaZ00vdnVxpYwymWOe5GLvoUdzdOAGqz0tURmIdQyMNGZ
UjuQ0A9/I3C01wUi0ogok+UBVy9FWtDUIGN4B0nLJcfXTYvMKEZuE/zjakAjjW5u
fOs8glftzg==
=Du28
-----END PGP PUBLIC KEY BLOCK-----
